packages/ui/src/assets/star.svg

<svg width="46" height="45" viewBox="0 0 46 45" fill="none" xmlns="http://www.w3.org/2000/svg">
<path class="fill" d="M23 10L25.9187 18.6373H35.3637L27.7225 23.9754L30.6412 32.6127L23 27.2746L15.3588 32.6127L18.2775 23.9754L10.6363 18.6373H20.0813L23 10Z" fill="#BD3800"/>
<path d="M23 3.1725L27.2148 15.8623L27.4422 16.5471H28.1638H41.7412L30.7759 24.3407L30.1731 24.7691L30.4062 25.471L34.6063 38.1166L23.5793 30.2791L23 29.8674L22.4207 30.2791L11.3937 38.1166L15.5938 25.471L15.8269 24.7691L15.2241 24.3407L4.25881 16.5471H17.8362H18.5578L18.7852 15.8623L23 3.1725Z" stroke="black" stroke-width="2"/>
</svg>

<svg width="46" height="45" fill="none" xmlns="http://www.w3.org/2000/svg"><path class="fill" d="m23 10 2.919 8.637h9.445l-7.641 5.338 2.918 8.638L23 27.275l-7.641 5.338 2.918-8.638-7.64-5.338h9.444L23 10Z" fill="#BD3800"/><path d="m23 3.172 4.215 12.69.227.685h14.299l-10.965 7.794-.603.428.233.702 4.2 12.646-11.027-7.838-.579-.412-.58.412-11.026 7.838 4.2-12.646.233-.702-.603-.428L4.26 16.547h14.299l.227-.685L23 3.172Z" stroke="#000" stroke-width="2"/></svg>
